X:1
T:Title
%%score { ( 1 3 ) | ( 2 4 ) }
L:1/8
M:3/4
K:Eb
V:1 treble nm="Grand Piano"
V:3 treble 
V:2 bass 
V:4 bass 
V:1
 z2 z2[Q:1/4=100] B,E | G3 B B>B | c B3 [GB]e | d3 c [GB][FA] |[M:2/4] G4 |[M:1/4] B,E | %6
[M:3/4] G3 B B>B | c B3 [Ge][Ge] | d3 c B=A |[M:2/4] [DB]4 |[M:4/4] z2 B6 | z2 B6 | z2 e6 | z2 B6 | %14
 z2 e6 | [Ae]Bdc- c4 | z2 e6 |[M:3/4] z2 E4- | E2 z2 z2 |] %19
V:2
 z2 z2 [E,G,][E,G,B,] | [E,B,E]3 [E,G,E] [E,G,E]>[E,G,E] | %2
 [E,A,E] [E,G,E]3 [E,B,][K:treble][G,B,G] | [B,F]3 [B,A][K:bass] [B,,B,][B,,B,] |[M:2/4] [E,B,E]4 | %5
[M:1/4] [E,G,][E,G,B,] |[M:3/4] [E,B,E]3 [E,G,E] [E,G,E]>[E,G,E] | [E,A,E] [E,G,E]3 [E,B,][C,B,] | %8
 [F,B,F]3 [F,=A,E] [F,B,D][F,CE] |[M:2/4] [B,,B,]4 |[M:4/4] z4 [B,,A,][B,,A,] .[B,,A,]2 | %11
 z2 z [E,G,] [E,G,][E,G,] [E,G,]2 | z4 [A,C][A,C] .[A,C]2 | z2 z [E,B,] [E,B,][E,B,] [E,B,]2 | %14
 z4 [E,B,][E,B,][E,B,][E,B,] | [F,B,][K:treble][G,E][A,EB][A,EA]- [A,EA]4 | %16
 z4[K:bass] [E,G,][F,A,][G,B,][A,CE] |[M:3/4] [B,E][B,,A,] E,-[E,-G,] [E,-A,][E,-A,] | %18
 [E,G,]2 z2 z2 |] %19
V:3
 x6 | x6 | x6 | x6 |[M:2/4] x4 |[M:1/4] x2 |[M:3/4] x6 | x6 | x6 |[M:2/4] x4 |[M:4/4] B>B z2 DDDB | %11
 c>B z E EE E2 | e>e z2 AAAe | d>c z G GG G2 | Be z2 GGG[GB] | x8 | BG z2 BAGG | %17
[M:3/4] G[DF] z B, CC | B,2 z2 z2 |] %19
V:4
 x6 | x6 | x5[K:treble] x | x4[K:bass] x2 |[M:2/4] x4 |[M:1/4] x2 |[M:3/4] x6 | x6 | x6 | %9
[M:2/4] x4 |[M:4/4] x8 | x8 | x8 | x8 | x8 | x[K:treble] x7 | x4[K:bass] x4 |[M:3/4] z2 .G,2 z2 | %18
 x6 |] %19

